Sources/FrostedUI/Resources/Icons.xcassets/trashFilled12.imageset/trash-filled-12.svg

<svg width="12" height="12" viewBox="0 0 12 12" fill="none" xmlns="http://www.w3.org/2000/svg" data-fui-icon="true">
  <path
    d="M9.87793 5.5C10.1809 5.5 10.4148 5.76725 10.374 6.06738L9.81836 10.1416C9.72499 11.1904 8.84706 12 7.78809 12H4.21191C3.15294 12 2.27501 11.1904 2.18164 10.1416L1.62598 6.06738C1.58517 5.76725 1.81915 5.5 2.12207 5.5H9.87793ZM6.75586 0C7.52867 0 8.21055 0.506848 8.43262 1.24707L8.80859 2.5H11.25C11.6642 2.5 12 2.83579 12 3.25C12 3.66421 11.6642 4 11.25 4H0.75C0.335786 4 0 3.66421 0 3.25C0 2.83579 0.335786 2.5 0.75 2.5H3.19141L3.56738 1.24707C3.78945 0.506848 4.47133 0 5.24414 0H6.75586ZM5.24414 1.5C5.1339 1.5 5.03676 1.57225 5.00488 1.67773L4.75879 2.5H7.24121L6.99512 1.67773C6.96324 1.57225 6.8661 1.5 6.75586 1.5H5.24414Z"
    fill="currentColor"
  />
</svg>

<svg xmlns="http://www.w3.org/2000/svg" width="12" height="12" fill="none" data-fui-icon="true" viewBox="0 0 12 12"><path fill="currentColor" d="M9.878 5.5a.5.5 0 0 1 .496.567l-.556 4.075A2.04 2.04 0 0 1 7.788 12H4.212a2.04 2.04 0 0 1-2.03-1.858l-.556-4.075a.5.5 0 0 1 .496-.567zM6.756 0a1.75 1.75 0 0 1 1.677 1.247L8.809 2.5h2.441a.75.75 0 0 1 0 1.5H.75a.75.75 0 0 1 0-1.5h2.441l.376-1.253A1.75 1.75 0 0 1 5.244 0zM5.244 1.5a.25.25 0 0 0-.24.178L4.76 2.5H7.24l-.246-.822a.25.25 0 0 0-.24-.178z"/></svg>
